X:1
L:1/8
M:6/8
K:G
 d |""_Lively"" cBA GAB | dBd e2 g | d2 c BAG | (F2 G) A2 d | cBA GAB | dBd e2 g | d2 c BAG | 
 cAF G2 :: d | dBc d2 e | dBc d2 B | A2 g fed | B2 e e2 f | g2 f edB | ABd ege | d2 c BAG | 
 E2 G G2 :: g | BGB AcA | BGB A2 g | Bdc BAG | FGA D2 g | BGB AcA | BGB Age | d2 c BdD | E2 G G2 :: 
 d | dgd Te2 d | Bge d2 B | A2 g fed | B2 e e2 f | g(a/g/f/e/) dgB | ABd e2 g | d2 c BdD | 
 E2 G G2 :|
